X: 21322
T: THE HUNTER
R: hornpipe, reel
B: K\"ohler's Violin Repository, v.2, 1885 p.132 #2
F: http://www.archive.org/details/klersviolinrepos02rugg
Z: 2012 John Chambers <jc:trillian.mit.edu>
M: C|
L: 1/8
K: C
(uef) |\
gage f(g/a/) fd | e(f/g/) ec dfdB | cG,A,B, CDEF | Ggfe {e}d2(ef) |
gage fafd | egec dfdB | cEFG AcBd | GcBd c2 :|
|: (ugf) |\
eg {ag^f}g2 dg~g2 | gafg efde | c(G {AG^F}G2 E)G~G2 | cEGc {c}B2(G,A,/B,/) |
CDEF GEFG | ABcd efge | fgef deBc | GcBd c2 :|

%%sep 2 1 500

